X: 37382
T: Sleeping Tortoise, The
R: jig
M: 6/8
K: Dmajor
|:EB B3 B|ABf gfd|deA ABA|ABF FGB|
AB B3 B|ABf gfd|edB ABB|FBB AGF:|
|:cAA Ged|cAA edc|BGG EGA|ABG dcB|
BcA Ged|cAA G2 B|Acd cdg|1 fgd cdG:|2 fgd cBA||

